X:148
T:Black Joke - Adderbury
M:6/8
L:1/8
K:G
D | DGG GFG | AcB AGF | GAB dcB | AcB AGF | G3 E3 | DEF G2 :||
B | d2 d d2 d | ede d2 B | d2 d d2 d | ede d2 c | B2 B BAG |
AcB AGF | AB dcB | AcB AGF | G3 E3 | DEF G2 ||
